packages/foundations/assets/icons/functional/images/human/cigarette_disabled_20.svg

<svg width="20" height="20" viewBox="0 0 20 20" fill="none" xmlns="http://www.w3.org/2000/svg">
<g clip-path="url(#clip0_185_1116)">
<path fill-rule="evenodd" clip-rule="evenodd" d="M16.3883 2.23005C16.7004 1.92581 17.3478 1.95275 17.7083 2.31324C18.0688 2.67372 18.1121 3.29409 17.7915 3.63324L9.41519 12.0199L16.7466 12.0203C17.1595 12.0203 17.3267 12.0668 17.4896 12.1539C17.6526 12.2411 17.7805 12.369 17.8676 12.5319C17.9099 12.611 17.9993 12.8108 18.0012 13.481C18.0031 14.1511 17.9125 14.4249 17.8676 14.5088C17.7805 14.6717 17.6526 14.7996 17.4896 14.8868C17.3267 14.9739 17.1595 15.0203 16.7466 15.0203L6.41519 15.0199L3.61409 17.8106C3.2558 18.1149 2.65457 18.0879 2.29409 17.7275C1.9336 17.367 1.88441 16.7687 2.2109 16.4074L16.3883 2.23005ZM4.88719 12.0199L2.2412 14.667C2.00119 14.3187 2.00119 14.2298 2.00119 13.5203C2.00119 12.8108 2.04761 12.6949 2.13476 12.5319C2.22191 12.369 2.34981 12.2411 2.51277 12.1539C2.67573 12.0668 2.84284 12.0203 3.2558 12.0203L4.88719 12.0199ZM2.8522 2.2505C3.25506 1.87272 3.8879 1.89305 4.26568 2.29592C5.47016 3.58036 5.55363 5.08492 4.52077 6.48196L4.29834 6.77324C4.14736 6.99181 3.95614 7.35216 4.13649 7.88209C4.18687 8.03015 4.30839 8.2273 4.50103 8.47353C4.7933 8.87541 4.74737 9.44146 4.3755 9.79018C3.97263 10.168 3.33979 10.1476 2.96201 9.74477C2.80721 9.57968 2.61496 9.32091 2.43901 8.97485C1.8949 7.90468 1.88426 6.69618 2.70044 5.5689L2.93191 5.2677C3.37774 4.66019 3.33459 4.22684 2.80678 3.66399C2.429 3.26112 2.44933 2.62829 2.8522 2.2505Z" fill="#1A1C1F"/>
</g>
<defs>
<clipPath id="clip0_185_1116">
<rect width="20" height="20" fill="white"/>
</clipPath>
</defs>
</svg>

<svg xmlns="http://www.w3.org/2000/svg" width="20" height="20" fill="none"><g clip-path="url(#a)"><path fill="#1A1C1F" fill-rule="evenodd" d="M16.388 2.23c.312-.304.96-.277 1.32.083s.404.981.084 1.32L9.414 12.02h7.332c.413 0 .58.047.743.134q.245.132.378.378c.042.079.131.279.133.949s-.088.944-.133 1.028a.9.9 0 0 1-.378.378c-.163.087-.33.133-.743.133H6.415l-2.8 2.79c-.36.305-.96.278-1.32-.082s-.41-.96-.084-1.32zm-11.5 9.79L2.24 14.667c-.24-.348-.24-.437-.24-1.147s.047-.825.134-.988a.9.9 0 0 1 .378-.378c.163-.087.33-.134.743-.134zM2.851 2.25a1 1 0 0 1 1.414.046C5.47 3.58 5.554 5.085 4.52 6.482l-.223.291c-.15.219-.342.58-.162 1.11q.075.22.365.59a1 1 0 0 1-1.539 1.272 3.4 3.4 0 0 1-.523-.77c-.544-1.07-.555-2.279.261-3.406l.232-.301c.446-.608.403-1.041-.125-1.604a1 1 0 0 1 .045-1.413" clip-rule="evenodd"/></g><defs><clipPath id="a"><path fill="#fff" d="M0 0h20v20H0z"/></clipPath></defs></svg>
